X:5127
T:The Fleg On The Pile
M:4/4
R:Hornpipe
L:1/8
Q:180
C:Aidan Crossey
K:G
|:(3ggg gd edBd|AdBD AdBD|(3ggg gd edBd|egfa gdef|
(3ggg gd edBd|AdBD AdBD|(3ggg gd edBd|egfa g2 g2:||
|:(3bbb bg ageg|dgeg dgeg|(3bbb bg ageg|egfa gdga|
(3bbb bg ageg|dgeg dgeg|(3bbb bg ageg|egfa g2g2:||
